symbols/web/sanitizer/materialsymbolsoutlined/sanitizer_wght100gradN25_24px.svg

<svg xmlns="http://www.w3.org/2000/svg" height="24" width="24"><path d="M16.4 8.4q-.4 0-.687-.275-.288-.275-.288-.675 0-.3.263-.775.262-.475.712-1.05.475.575.738 1.05.262.475.262.775 0 .4-.287.675-.288.275-.713.275Zm2.125 5.6q-.65 0-1.112-.45-.463-.45-.463-1.125 0-.575.463-1.388.462-.812 1.112-1.612.65.775 1.125 1.6.475.825.475 1.4 0 .65-.462 1.112Q19.2 14 18.525 14Zm-8.375 2.85h.625v-2h2v-.625h-2v-2h-.625v2h-2v.625h2Zm-2.825 3.1q-.625 0-1.025-.4-.4-.4-.4-1.025V12q0-1.8 1.2-3.1t3.05-1.475V4.65h-1.7v-.625H13q.45 0 .875.112.425.113.825.313l-.475.475q-.275-.1-.587-.188-.313-.087-.638-.087h-2.225v2.775Q12.6 7.6 13.812 8.9q1.213 1.3 1.213 3.1v6.525q0 .625-.412 1.025-.413.4-1.013.4Zm0-.625H13.6q.3 0 .55-.25.25-.25.25-.55V12q0-1.65-1.15-2.8t-2.8-1.15q-1.625 0-2.775 1.15T6.525 12v6.525q0 .3.25.55.25.25.55.25Zm0 0H6.525 14.4 13.6Z"/></svg>

<svg xmlns="http://www.w3.org/2000/svg" height="24" width="24"><path d="M16.4 8.4Q16 8.4 15.713 8.125Q15.425 7.85 15.425 7.45Q15.425 7.15 15.688 6.675Q15.95 6.2 16.4 5.625Q16.875 6.2 17.138 6.675Q17.4 7.15 17.4 7.45Q17.4 7.85 17.113 8.125Q16.825 8.4 16.4 8.4ZM18.525 14Q17.875 14 17.413 13.55Q16.95 13.1 16.95 12.425Q16.95 11.85 17.413 11.037Q17.875 10.225 18.525 9.425Q19.175 10.2 19.65 11.025Q20.125 11.85 20.125 12.425Q20.125 13.075 19.663 13.537Q19.2 14 18.525 14ZM10.15 16.85H10.775V14.85H12.775V14.225H10.775V12.225H10.15V14.225H8.15V14.85H10.15ZM7.325 19.95Q6.7 19.95 6.3 19.55Q5.9 19.15 5.9 18.525V12Q5.9 10.2 7.1 8.9Q8.3 7.6 10.15 7.425V4.65H8.45V4.025H13Q13.45 4.025 13.875 4.137Q14.3 4.25 14.7 4.45L14.225 4.925Q13.95 4.825 13.638 4.737Q13.325 4.65 13 4.65H10.775V7.425Q12.6 7.6 13.812 8.9Q15.025 10.2 15.025 12V18.525Q15.025 19.15 14.613 19.55Q14.2 19.95 13.6 19.95ZM7.325 19.325H13.6Q13.9 19.325 14.15 19.075Q14.4 18.825 14.4 18.525V12Q14.4 10.35 13.25 9.2Q12.1 8.05 10.45 8.05Q8.825 8.05 7.675 9.2Q6.525 10.35 6.525 12V18.525Q6.525 18.825 6.775 19.075Q7.025 19.325 7.325 19.325ZM7.325 19.325Q6.975 19.325 6.75 19.325Q6.525 19.325 6.525 19.325Q6.525 19.325 7.675 19.325Q8.825 19.325 10.45 19.325Q12.1 19.325 13.25 19.325Q14.4 19.325 14.4 19.325Q14.4 19.325 14.163 19.325Q13.925 19.325 13.6 19.325Z"/></svg>
